source/images/grapheme3.svg

<svg width="191" height="185" viewBox="0 0 191 185" fill="none" xmlns="http://www.w3.org/2000/svg">
<path fill-rule="evenodd" clip-rule="evenodd" d="M83.1681 92.1353V10.0157L1.04117 92.1353H83.1681Z" fill="#7541D5"/>
<path fill-rule="evenodd" clip-rule="evenodd" d="M180.448 96.8058C179.416 95.781 178.369 94.7561 177.242 93.7971C153.927 74.0468 119.016 76.9384 99.2655 100.254C80.5474 122.346 82.1945 154.842 102.267 174.987L180.448 96.8058Z" fill="#7541D5"/>
<path fill-rule="evenodd" clip-rule="evenodd" d="M177.125 99.9973L113.441 163.798C121.691 172.384 133.283 177.556 146.13 177.498C171.012 177.381 191.099 157.118 190.982 132.229C190.924 119.389 185.792 108.167 177.125 99.9973Z" fill="#080808"/>
<path fill-rule="evenodd" clip-rule="evenodd" d="M93.0359 0.104004L67.8759 25.2641V92.15H0.982605L93.0359 184.203L113.445 163.794C112.837 163.15 112.23 162.506 111.659 161.825C104.492 153.868 100.085 143.392 100.085 131.863C100.085 107.047 120.253 86.9307 145.142 86.9307C156.342 86.9307 166.569 91.0301 174.445 97.7795C175.368 98.5261 176.239 99.3241 177.095 100.144L185.082 92.1573L93.0359 0.104004Z" fill="#080808"/>
<path fill-rule="evenodd" clip-rule="evenodd" d="M67.9125 25.2421H1.00455V92.1646H0.997223L67.4367 25.7765L67.9125 25.2421Z" fill="#080808"/>
</svg>

<svg width="191" height="185" fill="none" xmlns="http://www.w3.org/2000/svg"><path fill-rule="evenodd" clip-rule="evenodd" d="M83.168 92.135v-82.12L1.041 92.136h82.127zm97.28 4.671c-1.032-1.025-2.079-2.05-3.206-3.009-23.315-19.75-58.226-16.859-77.976 6.457-18.719 22.092-17.072 54.588 3.001 74.733l78.181-78.181z" fill="#7541D5"/><path fill-rule="evenodd" clip-rule="evenodd" d="M177.125 99.997l-63.684 63.801c8.25 8.586 19.842 13.758 32.689 13.7 24.882-.117 44.969-20.38 44.852-45.269-.058-12.84-5.19-24.062-13.857-32.232z" fill="#080808"/><path fill-rule="evenodd" clip-rule="evenodd" d="M93.036.104l-25.16 25.16V92.15H.983l92.053 92.053 20.409-20.409a45.08 45.08 0 0 1-1.786-1.969c-7.167-7.957-11.574-18.433-11.574-29.962 0-24.816 20.168-44.932 45.057-44.932 11.2 0 21.427 4.1 29.303 10.849a42.36 42.36 0 0 1 2.65 2.364l7.987-7.987L93.036.104z" fill="#080808"/><path fill-rule="evenodd" clip-rule="evenodd" d="M67.912 25.242H1.005v66.923H.997l66.44-66.389.475-.534z" fill="#080808"/></svg>
